icons/money-pound-circle-fill.svg

<svg viewBox="0 0 24 24" fill="currentColor" xmlns="http://www.w3.org/2000/svg">
    <path d="M12.0049 22.0027C6.48204 22.0027 2.00488 17.5256 2.00488 12.0027C2.00488 6.4799 6.48204 2.00275 12.0049 2.00275C17.5277 2.00275 22.0049 6.4799 22.0049 12.0027C22.0049 17.5256 17.5277 22.0027 12.0049 22.0027ZM9.00488 13.0027V15.0027H8.00488V17.0027H16.0049V15.0027H11.0049V13.0027H14.0049V11.0027H11.0049V10.0027C11.0049 9.17432 11.6765 8.50275 12.5049 8.50275C13.0329 8.50275 13.4971 8.77553 13.7644 9.18786L15.7509 8.69125C15.2319 7.40804 13.9741 6.50275 12.5049 6.50275C10.5719 6.50275 9.00488 8.06975 9.00488 10.0027V11.0027H8.00488V13.0027H9.00488Z"/>
</svg>

<svg xmlns="http://www.w3.org/2000/svg" viewBox="0 0 24 24">
    <g>
        <path fill="none" d="M0 0h24v24H0z"/>
        <path d="M12 22C6.477 22 2 17.523 2 12S6.477 2 12 2s10 4.477 10 10-4.477 10-10 10zm-3-9v2H8v2h8v-2h-5v-2h3v-2h-3v-1a1.5 1.5 0 0 1 2.76-.815l1.986-.496A3.501 3.501 0 0 0 9 10v1H8v2h1z"/>
    </g>
</svg>
